/* XPM */
static char *_2a9fbfc13b745abeb012425441fc8carBWu1COYATZkdN5P[] = {
/* columns rows colors chars-per-pixel */
"100 100 256 2 ",
"   c #0F0E0A",
".  c #150E0A",
"X  c #1A0E09",
"o  c #14120D",
"O  c #1C120B",
"+  c #1F180E",
"@  c #161411",
"#  c #191612",
"$  c #1C1A14",
"%  c #1D1C19",
"&  c #24130B",
"*  c #2A170D",
"=  c #311C0F",
"-  c #231C15",
";  c #2B1C14",
":  c #221E1A",
">  c #281C18",
",  c #331E11",
"<  c #24211C",
"1  c #2B251A",
"2  c #2C231C",
"3  c #392416",
"4  c #33251B",
"5  c #35291D",
"6  c #3B2A1D",
"7  c #2A2624",
"8  c #2D2A24",
"9  c #332D24",
"0  c #382C26",
"q  c #35322B",
"w  c #3A3528",
"e  c #3A352C",
"r  c #343030",
"t  c #3B3734",
"y  c #432D1D",
"u  c #482B1B",
"i  c #49311E",
"p  c #57311A",
"a  c #64381E",
"s  c #422D21",
"d  c #4C2E22",
"f  c #4C3423",
"g  c #473729",
"h  c #563625",
"j  c #543926",
"k  c #543C2A",
"l  c #5B3C2B",
"z  c #433C34",
"x  c #4A3C34",
"c  c #433D39",
"v  c #563D32",
"b  c #633D2B",
"n  c #54422D",
"m  c #5C422D",
"M  c #454133",
"N  c #4B4435",
"B  c #45423C",
"V  c #4B443C",
"C  c #4D493A",
"Z  c #544433",
"A  c #5A4433",
"S  c #5B4B35",
"D  c #57493B",
"F  c #564D38",
"G  c #64422E",
"H  c #6A452E",
"J  c #71452C",
"K  c #644432",
"L  c #6A4632",
"P  c #644B35",
"I  c #6C4A35",
"U  c #66463A",
"Y  c #644C3B",
"T  c #6C4C3A",
"R  c #724C36",
"E  c #784C36",
"W  c #734E39",
"Q  c #665338",
"!  c #64543B",
"~  c #6A543B",
"^  c #6C5A3D",
"/  c #74513C",
"(  c #7B533C",
")  c #725A3D",
"_  c #72603F",
"`  c #3E3B40",
"'  c #443D43",
"]  c #4A4542",
"[  c #494746",
"{  c #4D4A43",
"}  c #534C44",
"|  c #5B4D43",
" . c #554D49",
".. c #5A5447",
"X. c #55524B",
"o. c #5B554C",
"O. c #515151",
"+. c #5A5652",
"@. c #5D5A53",
"#. c #5A5957",
"$. c #654D42",
"%. c #714E45",
"&. c #645244",
"*. c #6B5444",
"=. c #6C5C42",
"-. c #63554B",
";. c #6A5649",
":. c #65594E",
">. c #6C5A4C",
",. c #745443",
"<. c #7B5641",
"1. c #725C43",
"2. c #7D5944",
"3. c #74544A",
"4. c #735B4C",
"5. c #7C5C4B",
"6. c #675B56",
"7. c #635C54",
"8. c #6B5D53",
"9. c #635E59",
"0. c #725D53",
"q. c #7A5E54",
"w. c #5D615C",
"e. c #756244",
"r. c #796646",
"t. c #75634B",
"y. c #7C634C",
"u. c #796B4A",
"i. c #7B6B4C",
"p. c #6C6155",
"a. c #676359",
"s. c #65625B",
"d. c #6B645D",
"f. c #746153",
"g. c #7B6454",
"h. c #74655B",
"j. c #7B655B",
"k. c #786A58",
"l. c #7B6A5C",
"z. c #7F7153",
"x. c #606262",
"c. c #656765",
"v. c #6B6661",
"b. c #6C6A64",
"n. c #6D6D6A",
"m. c #776965",
"M. c #736C65",
"N. c #7C6C63",
"B. c #726E6A",
"V. c #797267",
"C. c #74726C",
"Z. c #7B746C",
"A. c #6E7071",
"S. c #747572",
"D. c #7B7571",
"F. c #767976",
"G. c #7C7A74",
"H. c #7C7D7A",
"J. c #804C3A",
"K. c #83563D",
"L. c #845B44",
"P. c #865D47",
"I. c #935C49",
"U. c #82614D",
"Y. c #85694B",
"T. c #83714F",
"R. c #826452",
"E. c #856859",
"W. c #836B5C",
"Q. c #946A56",
"!. c #837454",
"~. c #84735B",
"^. c #88775A",
"/. c #8B7C5C",
"(. c #836C63",
"). c #896D64",
"_. c #9A6F60",
"`. c #847264",
"'. c #8A7464",
"]. c #8B7D64",
"[. c #84746B",
"{. c #8B756B",
"}. c #85796A",
"|. c #8C7A6C",
" X c #967967",
".X c #927C6D",
"XX c #837B74",
"oX c #877874",
"OX c #8B7B73",
"+X c #837E7A",
"@X c #937D74",
"#X c #967E76",
"$X c #A27767",
"%X c #7D817E",
"&X c #8D8165",
"*X c #928365",
"=X c #93856B",
"-X c #9A866D",
";X c #95896D",
":X c #8B8175",
">X c #84827C",
",X c #8B837C",
"<X c #948274",
"1X c #978B71",
"2X c #9A8D73",
"3X c #93837C",
"4X c #9B8778",
"5X c #9C9176",
"6X c #9E937B",
"7X c #A68973",
"8X c #A2957E",
"9X c #7F7D84",
"0X c #837E82",
"qX c #7C8483",
"wX c #7D8689",
"eX c #848582",
"rX c #8B8582",
"tX c #8C8A85",
"yX c #86898A",
"uX c #8B8C8B",
"iX c #938B85",
"pX c #988A85",
"aX c #948D8B",
"sX c #9D9383",
"dX c #95918C",
"fX c #9B938C",
"gX c #8B8D92",
"hX c #918F90",
"jX c #8B9395",
"kX c #949393",
"lX c #9A9796",
"zX c #9D9C9C",
"xX c #A68D85",
"cX c #A29683",
"vX c #A19984",
"bX c #A6968A",
"nX c #A49C98",
"mX c #9CA19E",
"MX c #A7A29B",
"NX c #B6A69B",
"BX c #989BA4",
"VX c #A39DA4",
"CX c #9DA2A5",
"ZX c #A7A5A6",
"AX c #AEAAAD",
"SX c #B7B5B5",
"DX c #C4BAB4",
"FX c #C8C2BD",
"GX c #CDC8C7",
"HX c #DCD8D6",
"JX c #E1DDDA",
"KX c #E5E1DE",
"LX c #E9E7E6",
"PX c #F0EFED",
"IX c #F5F4F4",
"UX c #FFFEFE",
/* pixels */
"vXvXvXcXcXvXvXvXvXvXvXvXvXvXvXvXvXsXcX8X8X6X6X6X6X6X6X2X2X2X1X1X-X-X=X=X=X].].].'.^.'.'.].].].].].].`.`.`.`.l.g.4.~ P K K K L L T R R E E ( ( 2.P.Y.E.E.E.R.U.P.5.5.5.P.P.P.U.P.P.P.P.P.P.P.P.P.P.L.L.L.",
"8X8X8X8X8X8X8XcXcXvXvXvXvXvXvXvXvXvXvX8X8X6X6X6X6X6X6X5X2X2X2X2X1X1X=X=X=X=X].].].].].].].].].].].].].].].].~.g.>.$.P P K K L I T R E E E E ( <.2.U.R.R.R.R.U.U.5.5.5.U.P.P.P.P.P.P.P.L.L.L.P.P.L.L.L.P.",
"6X6X6X6X6X6X8X8XcXcXvXvXvXvXvXvXvXvXvXcX8X8X6X6X6X6X6X6X5X2X2X2X2X1X1X;X=X=X.X].].].].].].].].].].].].].].].~.k.>.Y P K K L L I R ( ( ( E E ( ( 2.5.U.R.R.R.y.y.y.5.y.U.R.U.P.P.P.P.L.L.K.L.L.L.L.L.L.L.",
"2X2X2X2X2X5X5X8X6X8XcXsXvXvXvXvXvXvXvXcX8X8X6X6X6X6X6X6X5X5X5X5X2X2X2X1X1X=X=X=X].].].].&X&X=X=X&X].].].].].~.k.>.Y P P K K L R R ( ( ( ( E ( ( 2.2.P.U.U.U.y.y.U.U.y.R.R.R.P.P.L.L.L.L.K.K.K.K.K.K.K.L.",
";X;X;X;X-X-X2X2X6X6X6X6XsXcXvXvXvXvXvX8X8X6X6X6X6X6X6X6X6X5X5X5X5X2X2X2X1X1X=X=X=X=X=X=X=X=X=X=X&X&X&X].].].~.k.>.Y P P P P I R W ( ( ( E E ( ( <.2.5.5.5.5.5.5.5.U.R.R.R.U.P.P.L.L.L.L.K.K.K.K.( ( ( ( ",
"*X=X*X*X*X*X-X-X2X2X5X6X6X6X6XsXsX6X6X6X6X6X6X6X6X6X6X6X6X6X5X5X5X6X2X2X1X1X1X=X=X=X=X=X=X1X=X=X=X&X&X&X].].~.g.>.Y P P P L I R E ( E E E E ( ( ( 2.2.2.2.5.5.5.5.y.R.R.R.U.P.L.L.L.L.L.K.K.( ( ( ( ( ( ",
"].*X].*X*X*X*X*X;X-X2X2X2X5X6X6X6X6X6X6X6X6X6X6X6X6X6X6X6X5X5X5X5X5X2X2X2X2X1X1X1X1X1X1X1X1X1X;X=X=X=X&X&X].~.g.;.Y Y Y L I R R E E E R E E ( ( ( ( <.<.<.<.<.2.5.5.y.R.U.P.5.2.2.2.2.2.L.K.( ( ( ( E E ",
"/././././././.*X*X*X;X;X1X2X2X2X5X5X5X5X6X6X6X6X6X6X6X6X6X5X5X5X5X5X5X2X2X2X2X2X2X2X2X2X2X2X1X1X;X=X=X=X&X].~.f.*.Y Y I T R E E E E R R R E ( ( ( ( ( W R W / ,.,.2.5.5.5.2.2.<.<.<.<.2.<.( <.( ( ( ( E ",
"^.^././.^.^.^././.*X*X*X=X=X;X;X;X1X2X2X5X5X6X6X6X6X6X6X5X5X5X2X2X5X2X2X2X2X2X2X2X2X2X2X2X2X2X2X1X;X=X=X=X].~.t.*.Y Y T R R E E E R R R R E ( ( ( R I I I I R W / ,.,.,.,.,.,.,.<.<.<.2.<.<.<.<.( ( ( ( ",
"!.!.!.!.!.!.!.!.^././.*X*X*X*X*X*X=X=X;X;X2X2X2X5X5X5X5X5X2X2X2X2X2X2X2X2X2X2X5X6X6X6X5X5X2X2X2X2X1X;X=X=X].~.t.*.Y Y I R R R R R L L I I R E E E R I I I I I I T T ~ ,.,.~ T W / ,.,.<.<.<.<.2.<.<.( ( ",
"T.!.!.!.!.T.T.!.!.!.^.^./././././.&X*X*X*X=X;X;X;X;X1X2X2X2X1X2X2X2X2X2X5X5X6X6X6X6X6X6X5X5X2X2X2X1X1X;X=X].~.t.~ Y L I R R R R I L K L L I R E R R I R R R I I I I Y T T Y Y Y T / ,.,.<.<.<.<.<.2.<.<.",
"T.T.T.T.T.T.i.i.T.T.!.!.^.^.^.^.^.^./././.&X*X*X*X=X=X;X;X;X;X1X2X2X2X2X6X6X6X6X6X6X6X6X5X5X5X2X2X2X1X;X=X].~.t.~ L L L I I R R L K K K K L I R R R R R E R R L L L P Y Y Y P P I T / ,.,.<.<.<.<.<.<.<.",
"Y.Y.Y.Y.T.i.i.i.i.i.T.T.!.!.!.!.!.!.!.^.^.^./.].&X&X*X*X=X=X;X;X1X2X2X5X6X6X6X6X6X6X6X6X6X5X2X2X2X2X1X;X=X&X~.t.~ K K L I R R R I L K K K L L I I I R R R R I L K K P Y Y Y I P L T / / / / / <.<.<.<.<.",
"Y.Y.Y.Y.r.i.r.r.r.i.i.i.i.!.!.!.!.!.!.!.!.!.^.^.^./.].].&X*X*X=X;X;X2X2X5X5X6X6X6X6X6X6X6X6X5X2X2X2X1X;X=X].~.t.~ P G K L R R R R I L K K K K K L L I R R R L K K K K Y Y Y Y L I T R R / / / / ( ( ( <.",
"r.r.r.r.r.r.r.e.e.r.r.r.i.i.i.i.i.z.i.i.i.z.!.!.!.~.^.^././.&X&X=X;X;X1X2X2X2X2X2X2X5X5X5X5X5X5X1X1X1X;X=X].~.t.~ K G G L I R R R R I L L K K K K K L I R T P P K K K Y P Y I I I I R R E / / W / / ( ( ",
"r.r.r.r.e.e.e.1.1._ e.e.r.r.i.i.i.i.i.i.i.i.i.z.z.z.z.z.!.!.^./.&X*X=X;X;X;X;X1X1X1X1X2X2X5X2X1X1X1X1X;X=X].z.t.~ L T ,.g.'.(.E.R./ I L L L K K K K L T W T Y P P K P I I I Y T T I R R E ( / R E / ( ( ",
"e.r.e.e.e.e.=.^ ^ ^ ) ) e.e.r.i.r.i.i.i.i.i.i.i.i.i.i.i.i.z.!.!.^./.&X*X*X*X*X=X=X=X=X;X;X;X1X;X1X;X;X;X=X&X~.l.g.W.'.(.j.h.`.(.N.(.j.4.W L K K K L I R / T I P K K K P L L I T T T I R R R R R R R R E ",
"_ e._ _ ^ ^ ^ ^ ^ ^ ^ ^ ) 1.e.r.r.r.r.r.r.r.r.r.t.t.u.u.u.i.i.z.!.^././.&X&X].].&X&X&X*X=X=X=X=X=X=X=X=X&X].`.oX}.[.[.N.h.h.N.j.0.0.(.(.).q.T K K L I I R T L K K K K K K L L T T I I L I I I T I R R R ",
") ) ) ^ ^ ^ ^ ^ ^ ^ ^ ^ ^ ^ 1.e.e.e.r.r.r.r.r.r.r.r.e.t.t.t.t.u.z.!.!.^.^.^.^.^.^.^.^.^./././.].&X&X].&X=X4XOXZ.[.m.N.l.h.m.m.(.q.j.h.q.(.(.).,.L L I I R I L K K K K K K K L I I I L L L L L L I I I R ",
"~ ^ ^ ^ ^ ^ ^ ~ ~ ~ ~ ~ ~ ^ ^ 1.e.e.e.e.e.e.e.e.e.1.=.=.=.=.e.t.t.i.i.!.z.z.z.z.i.i.z.z.z.z.z.z.z.z.~.]..X<X[.Z.N.m.h.0.-.0.3.3.q.j.j.j.0.j.j.).R.I L L L K K K K K G G G K K L I I L L L K K L L L I R ",
"P Q ~ ~ ~ ~ ~ ~ ~ Q Q Q ~ ~ ^ ^ 1.1.1.1.1.1.1.1.1.1.=.=.=.=.=.=.e.t.i.i.i.i.i.u.u.t.t.t.t.t.t.t.t.t.l.<X<XoX<XoX[.oX(.q.4.q.q.3.3.3.3.j.j.j.R.E.(.).K K K K m m G G G G G G G L I I R L L K K L H L I R ",
"m P P P Q Q Q Q Q Q Q Q ~ ~ ~ ^ ) ) 1.) ) ^ ^ ^ ^ ^ ^ ^ ! ^ ^ =.1.e.e.e.e.e.e.=.=.=.=.=.=.=.=.=.=.`.<X@X[.oX{.{.(.j.q.q.q.3.$.3.$.3.%.U Y 3.j.(.).'.4.m l l n m m G G G G K K H J I R L L G G G G H I R ",
"j n n m A A S P P P P P Q Q ~ ~ ~ ^ ^ ^ ^ ~ ~ ~ ~ ^ ~ ! ! ! ! ^ ^ =.=.=.=.=.=.^ ! ! ! ! ! ! ! ! f.<X4X{.#X#X#X{.(.j.g.q.,.U K K b b b U v U 0.q.l.(.OXY l l l n m G K L K G G G L J R J H G G l G K I / ",
"y f f j j k k n n m m P P P P P Q ~ ~ ~ ~ ~ Q Q Q Q Q ! ! Q Q Q ^ ^ ^ ^ ^ ! ! ! ! F S S S S &.l.<X3X<X<X@X.X).W.q.5.,.U P l l l l l U %.U b K 3.;.;.H.n.| D k l m G K L K G G G H L L L L l l l G P I / ",
"3 3 y y i f f f j j l n m m G P P P Q P Q P Q Q Q Q Q Q Q ! S ! ! ! Q ! ! ! ! S S S S S S F k.@X3X@X@X X{.).E.R.3.%.%.K l l h h h l h h b l l k g g ] #.O.A.x.| K H H L L H G G G G H G G l j k A L / / ",
"* ; 3 3 3 6 y y i i f j j l l n m m G K P P P P P P P P S S S S S ! ! ! ! P S S S S S Z Z ..`.@X@X@X#X@X).(.E.q.3.3.W K l h h d h g 0 s s s s 4 4 7 > t ' t [ O.-.$.L L L H G G G G G G b j j j K T / / ",
"& & * * ; , , 3 3 3 y y i i f j j l l m m m m m A S S S S S S S S S S S S S S S S S A A Z l..X.X@X#X{.{.(.R.5.,.T U b b l h d d 5 7 : $ 2 q $ # o @ % 7 7 7 7 7 r c X.Y K H G G G G G G l j j l K ~ / ~ ",
"& & & & & & * * = , , 3 3 3 y u u i i f f j j j n n n m A A S Z S S S S S S S Z A A A Z S ~..X.X X).{.E.q.4.3.T U K l h h d 3 3 q q # # # 7 : : % # : : % : < 2 < 2 0 ;.m G l l l m G G l j j l P ~ ~ Y ",
"& & & & & & & & & & * * = , , 3 3 3 u u u u i i f j j k k n n n n n A A A A A A n A n Z *.W..X.X).).E.R.3.$.U U b h h h h y - > 9 7 # @ $ 7 7 9 : $ $ % $ % % : 9 g l l l l j l l l l l j h f k K Y Y P ",
"& & & & & & & & & & & & & & * * = = , 3 3 3 u u u i i f f f j j j k k n n n n n n n n n Z .XnXnX@XR.q.3.3.%.b b l l l d 4 > $ $ $ % 7 9 r 7 7 q : % @ @ @ 2 g A G l j j h h f h h j j j j f f j A P P K ",
"& & & & & & & & & & & & & & & & & * * = = = , 3 3 3 3 y y y y y i i f f f j j k k k k ! l.N.OX[.nXbX{.E.q.3.%.%.%.%.v 7 : 7 ] 6.+.7 : : < : 7 7 # @ $ t | l l b b l j h f f f f f f j j f f s f n K K n ",
"& & & & & & & & & & & & & & & & & & & & * * * = = , , 3 3 3 3 3 3 6 6 6 y y i f f k -.3X+.s.OXs.tXZXnXpX(.q.%.%.3.%.| 9 : ] B.[.[.v.o.V } | } 9 # % 8 [ } l l l l j j f f f f f f f f f s s s g k n m k ",
"& & & & & & & & & & & & & & & & & & & & & & * * * * * = = ; ; ; 1 1 3 3 3 3 3 6 k h.fXv.7.4X8X8.s.iXfX,XlXaXoX;.$.U | ] r  .C.M.6.M.m.+XOX.Xl.;.e 7 t [  .k j j j h h f f f f f f f f f s 6 0 s k k k f ",
"& & & & & & & & & & & & & & & & & & & & & & * * * & & & & & & + + + & * * ; 1 g D.v.OXd.6X8X7X`.} rXpX[.@.n.uXaX[.N.3.$.v.] t 7 7 c t x (..X.X.XN. .' [ x.o.j f f f f f f f f f f f f i 6 5 5 0 f j g s ",
"& & & & & & & & & & & & & & & & & & & & & & & * * & & & & O O o o o o o o + x G.#.<X<XX.].7X7X.X6.] d.d.:.} G.aXkXlXVXnXfXZ.+.7 : $ % % t N.xXxXpXiXA.[ ` t 9.V s s s f f f j j j f f y 6 4 5 0 f f y 5 ",
"& & & & & & & & & & & & & & & & & & & & & & & & & & & & O O o o o       o V d.[ OX4X .l.8X7X-X`.c z g.W.*.D c m.[. .S.hXVXVXlX0XA.A.A.c.[  .bXbXxXxXlXD.[ x.A.A.w 6 6 s y f d h j d d y 4 4 4 0 f s 6 ; ",
"& & & & & & & & & & & & & & & & & & & & & & & & & & & O O O o o o o o @ e N.M.v.bXo.6.bX8X7X Xj.q  .o. XE.x 2  Xl.;.| 7.d.0XhXgXZXgXyXjXCXAXZXVXbXfXVXZXAXVXAXZX#.6 6 y y d f p p i i 6 4 1 1 5 6 6 4 - ",
"& & & & O O O O O O O O O O O O O O O O O O O O O O O O O O o # # % % q V.<Xl.`.W.| OX<X7X7X<X+.XX} c | _._.;.;.R.*.$.E.E.h.6.8.[.[.N.V.V.+XBXAXAXfXpXfXZXZXAXAXAXc.0 6 y y i f f f y 6 4 1 2 4 5 4 ; # ",
"O O O O O O O O X X X X X X X X X X X X X X X X X X X . . o @ $ % < e s.<Xp.V..X.XX.{ 7X8X@X7..X-X`.| o.8.j.g.l.|.[.m.m.[.Z.m.j.l.h.(.`.j.j.M.+XkXVXhXrXVXVXAXAXZXF.e 5 6 6 y y y y y 6 4 4 4 1 1 > # . ",
"O X X X X X X X X X X . . . . X . X X X X X X X X . . . . o @ $ % 7 7.}.h.h.OX<Xh.t N.cX|.} >.$X X(.`.| V 8.[.XX,XZ.m.d.Z.m.8.0.0.&.q.f.g.g.| m.G.0XS.D.D.aXlXZXCXgXc 5 5 6 6 6 6 6 6 6 5 4 4 1 > $ o   ",
"O X o . . . . . o . . . . . . . . . . . . . . . . . . . . o @ @ $ ] }.,X@.M.`.g.c v.fXV.] x  X-XN.l.Q.E.W.}.D.Z.Z.M.m.p.l.j.f.3.3.q.3.3.q.(.} ;.h.v.0X9.[ +XhXBXBXA.c 4 4 5 5 5 6 6 6 5 5 5 4 1 - # o   ",
"O O o O o o o o o o o o o o o . . . o . . . . . . . . . . o @ @ < d.:X9.V.}.'.W.7.Z.s.} e W.7X[.} Q.Q.^.{.[.N.[.M.N.l.4.>.>.j.*.U g.*.$.4.$.z j.N.8.M.0Xt c 0XkXBXyXq 2 2 4 5 5 5 5 5 5 5 4 1 1 - # o o ",
"# # # # # + + + + # # $ $ # @ @ @ o o o o o o o o o o o o o @ < } 3XV.Z.}.OX@X[.M.d.D E.*.4XM.t R._.W.l.N.N.l.h.8.f.g.>.*.f.&.$.T U 0 g I l g W.3X,X7.+X9X .6.rXVXgXc 2 4 5 5 5 5 5 4 4 5 4 2 < $ # @ @ ",
"% : < < < - - % % < : < < : - $ $ # # # # @ @ # @ @ @ @ @ @ % } :XOXV.OXl.}.}.[.+XV R.7X X|.] N  X(.h.:.V.h.7.o.:.0.| x | x f K b d > f H G v *.oXfXtXD.0XG.M.+XlXgXc 2 4 5 5 5 5 5 4 5 5 4 1 < % $ $ # ",
"1 8 9 9 8 2 1 1 1 1 1 1 2 2 2 < < : : % % % % % % ] +.9 X.q V.NXsXM.}.l.<XDXAXiXo.&.7X4X}.`.} N.d.fXaXd.v.v.9.A Y g : s d h R._.J T h.5.R E I $.oXAXSXfXtXtXtXrXaXhX{ 4 5 6 6 6 5 5 6 5 5 4 1 : % % % % ",
"w e w w e w 9 9 9 9 9 9 9 9 8 8 8 2 2 2 2 2 7 2 < ZXUXeXUXFXLXUXdX}.|.2XbXUXHXM.9 -X<Xo.7.N.M.6.N.UXUX .rXUXHX( l 4 g l G J HXUX;.ZXUXbXL L g.[.nXUXLXZX>XaXkXkXtXuXN 6 6 y s 0 6 6 0 0 5 4 1 > : : : : ",
"M N N N N M g w w e e e e e w q 9 9 8 8 9 9 8 8 8 D.UXLXUXPXUXIXAXKXKXNXcXUXKXGXHX,XiXDXJXnXM.`. XUXUXGXPXUXJXE.NXGXMXz x g GXUXX.zXUXsXGXGXHXFXiXUXKXbXfXiXtXtXeXhXx y y y y s 0 s s 6 4 1 < - % : : : ",
"C F F F F C N M M z z z z z e e e q q q q q q 9 8 { UXUXUXUXUXHXFXKXIXUXNXUXUXUXSX[.IXPXJXUXpX.X'.UXUXUXUXUXJXGXUXDXUXS.7 r GXUX{ zXUXdXUXIXHXUXFXUXKXiXfXaXfXaXlXkXx s s s s s s s y 6 5 1 - $ $ $ $ $ ",
"F F F F F F C N M M M M M z z e e w w w e q q 9 9 9 IXUXSXUXUXDXUXPXLXUXkXUXUXUXGXh.IXUXFXSXh.>.4.UXIXPXLXUXJXHXUXLXGXVXZ.kXHXUXHXIXUXDXUXIXGXUXDXLXGXfXiXfXlXZXlXo.f f f f s s s f y 6 1 > $ # # # # # ",
"} ......F F C N M M N M M z z t e e w w w w q q 9 #.GXUXiXKXUXbXLXUXIXUXkXUXJXKXUXnXfXHXUXIXU.U.4.UXIX0. XUXHX`.HXUXUXnXaXrXnXPXUXUXGX3XUXUXUXPXZXUXLXnXfXlXfXVXVXN s f f s s s s s 6 5 ; $ # @ @ @ o o ",
"........| F C C N N M M c c t t e e e e w w q q V #.[ } <X-X1X<Xl.V c V | j.8X4X7.' t z 3.U.R.| V ;.3.,.3.$.T ,./ Y T T Z U 3.U q.A U *.UXKXZ v.+XtXfXlXfXlXfXzXkXx s y y 0 0 0 6 6 5 1 - # o o o @ o o ",
"..........} } C C V V B B M t t t e e e e e w V #.[ h.|.4X8X.XN.c c | g.Q.7XbX(.t r z U.E.;.c z 4.U.2.&.v I E <.L R <.g 0 L l l b h h H nXMXh.S.eXaXfXiXiXaXfXzXG.s s y y 6 6 6 6 5 1 < $ + o o o o o o ",
"o.........X.X.} } { { { V V V B c c c c t t B b.D.nXW.5X8X<X`.D D R.-XOXN.XXAXhXD 4.W.-.c r z 4.U.*.z 0 W R I G J R L 4 4 K h b p h a u v 3 | M.XXfXiX,XfXpXdXnXs.s s s s 6 6 6 5 4 ; - + + o o o o o o ",
"@.@.o.o.o.....X.X.X.X.} } { { { ] V V V B V n.#.XX| 1X4X.X.X XW. X[.7.V { GXLXNXNXPXrX#.kX[.4XR.iX+XrX{.bX8.;.NX<XR.K ,X[..Xa a p p u i 4 g 8.B.rXaX,XaXfXaXlXlXx y s s s 6 6 6 4 1 > $ # o o o o o o o ",
"7.@.7.@.@.+.o.o.o.o.o.X.X.X.X.{ { } { { { +.O.[ } `.4X1X<X6X.Xh. .' c x | GXPXDXPXKXGXZXGXDXHXe GXkXHXDXLXM.DXDXFXNX&.HXNXGXQ.p p u , ; 6 D v.G.tXpX,XiXlXlXlXfXx s s s s y 6 5 1 ; - # # o o o o o o o ",
"s.s.s.s.s.7.7.@.@.@.@.@.+.X.X.X.X.X.X.X.X.#.[ -.m.sX<X4X<Xo.] c c V $.4.E. Xh.7.+.B.pXOX.XW.;.r rXv 3.g 4 v @Xv.b i e pXJ p u p 3 ; ; s $.m.v.+X,XpX,XiXnXnXlXkXz 0 s s s s 6 4 1 > $ + o o o o o o o o ",
"b.d.b.d.d.s.s.s.s.s.7.@.@.+.+.X.o.X.o.+.#.[ 7.h.4X4X4X}.} c t x ;.E.'.g.8.X. . .h.[.N.j.:.(.pXrX{.E.l.m.4.5.s H s - s J a p u ; > 3 P 4.m.m.oX+X+XpXtXaXnXZXzXlXg 6 6 6 0 6 4 1 ; - # # o o o o @ o o o ",
"b.b.b.b.d.d.s.s.s.s.s.7.@.+.o.o.o.o.@.v.v.[.8.4X4X<X|.} c z *.E.E.j.} c V } -.l.`.'.(.8.>.f.0.h.3.E.xXbX@X{.y.f 6 f ( E E d ; 4 x *.j.N.oXV.XX3XOX3XaXfXlXZXnXuX9 4 4 2 4 4 1 > - # # # + o @ @ o @ @ @ ",
"n.b.b.b.d.d.s.s.s.s.s.@.@.+.o.o.X.o.C.fXbX(.[.cX<X.X| z | E.{.>.c c c ] | q.{.{.'.'.W.j.j.*.*.T I ( R Y &.>.T 4.W./ j j f j A $.q.h.N.[.@Xh.oX3X@XOXfXfXfXZXzXn.2 2 > > > > > - $ # # + o @ @ @ @ @ @ @ ",
"B.n.n.b.b.d.s.s.s.s.7.@.@.+.o.o.o.v.uXbX[.h.bX4X<X.XD ~.].s.c e x &.q.E. X.X X X-X`.0.0.g.y.,.( R G b l 3 o 4 >.A y f A ,.0.0.j.m.Z.[.[.@XN.OX3X@X[.fXfXfXVXyXe > > > > > : : % $ $ # # # # # $ $ $ $ $ ",
"C.B.n.b.d.d.s.s.s.s.s.s.7.@.@.@.v.O.v.N.<XsXcX<X6X1X8.] c e x 4._. X4X4X X X-X.X-.8.'.5.<.<.m 3 i E K.K.y ; 1 3 j I 3.q.(.m.N.[.OX@X3X3X@X{.|.OX}.}.fXbXlXzXn.> > ; > > > > < < : : : : : : < < < < < < ",
"C.C.C.b.b.b.d.d.s.d.d.d.s.s.s.d.#.+.6.pX4X4X<X|.8.c t t x 4.'.4X-X X X X X'.>.>.W.R.( / A 4 ; h K.I.K.( l y j ,.5.(.oXoXoX[.oXN.3XOX3X3X[..X@XOXoX,XnXnXnXVX] - - > > 2 7 8 8 8 8 8 8 7 8 8 8 7 8 8 9 9 ",
"C.C.C.B.n.b.b.b.b.b.b.b.b.d.d.w.O.s.4XbX4X<X'.p.c t e D W. X|.<X-X XW.W.8.8.W.Y.2./ A 1 - ; i E ( R R K K ,.R.).(.OX@X@XOXXX+XOX@X@X@XOX'.@X@XOXoX3XnXnXlXlX> - - - > 7 9 q q q q q q q q q r t t t t t ",
"C.C.C.B.n.n.n.b.M.B.B.B.B.n.c.#.B.OX3XcX=X].`.z e e 4.-X|.l.4X8X<X`.8.| W.U./ 2.k 1 - ; ; 6 m f j l / 2.E.'.|.#X#X#X@XOX[.[.pX@X|.(.oX[.{.{..X|.[.pXnXlXaXG.> > 2 2 8 q r t c B B B B c t c B B B V ] ] ",
"C.C.C.C.B.B.B.B.C.C.C.C.C.C.C.sXpX,X<X<X|.~.j.w Z ~.l.8.{.7X<X@Xf.X.j.y.P 3.Z 4 4 , 3 6 f s s k Y R.W.'.{.@X3X3X|.|.[.oX[.@X@X}.j.W.{.'.'.'.<X|.[.pXnXlXrXc.q q q r t t B ] { X.+.X. .{ { {  .X.X.X.+.+.",
"C.C.S.C.C.C.C.C.C.C.S.S.G.b.iX<XXX3X}.|.l.'. Xg.f.X.:..X<X`.N.| -.W.Y Y v g 5 s f f g g g x Y g.E.{.}.OX@X3XOXoXoXoXN.}.(.{.[.j.;.W.'.`.`.@X#X|.:XfXnXzXeXX.] ] ] ] [ { X.+.@.9.9.#.@.#.+.+.@.9.9.9.9.s.",
"S.D.G.S.C.C.C.C.C.C.C.S.rXMXZ.V.fXpXl.g.j.,Xd.c c >.`.l.:.:.c f.*.g *.Z k j k A v 0 0 Z $.>.j.j.N.oXOX[.[.[.[.[.[.[.}.'.g.W.f.g.g.j.l.(.OX4XOX,XpXfXzXzXS.#.@.#.#.#.#.#.#.9.s.c.c.c.c.c.s.s.d.c.c.v.v.b.",
"G.G.G.G.S.C.C.S.S.S.S.G.MXB.M.<X.X<X.X[.,XiX`.;.N.h.h.:.D | f.k P P *.R.4.x 9 2 w x P *.0.h.j.N.oXoX[.(.l.m.OXOX}.(.'.(.j.g.g.W.W.g.g.W.4X4X@XpXlXdXzXkXn.n.n.b.n.b.c.c.c.c.b.n.A.S.C.B.n.b.b.b.b.b.n.C.",
"G.G.G.G.S.S.S.S.G.C.C.C.B.C.fX<X<X3XOXV.XXpX`.].~.^.4.>.4.;.S Y S Z g w c z g x Z Y &.4.j.`.[.XXoX[.(.`.N.h.oX'.g.g.W.5.g.g.g.j.j.E.W.'.pX<X3XiXnXdXzX%XC.A.C.C.C.B.n.n.n.n.n.n.S.S.S.S.C.C.n.n.n.n.B.C.",
"G.G.G.G.G.G.G.G.C.C.C.B.D.,XpX<XZ.XXM.d.V.,XN.f.$.S k Z Z N x g 5 0 z D &.D D Y &.Y 4.l.W.[.OXOX(.j.N.[.N.m.'.j.f.>.>.Y *.>.j.g.W.W.'.@X3XpX,XdXlXdXhXS.C.A.A.n.C.C.B.n.C.n.n.n.B.B.C.S.S.S.C.C.B.B.B.C.",
"G.G.G.G.D.G.G.G.C.C.n.M.dXtXiXM.6.>XZ.Z.XXZ.h.h.h.&.g 5 1 1 w g x D 8.0.D x D *.4.t.f.;.f.|.{.|.N.h.`.[.(.j.`.(.&.D $.P Y >.4.W.W.|.|.oX,XfXiXfXdXtXS.n.n.n.b.b.b.b.b.b.n.b.b.b.b.n.n.C.C.C.C.C.C.C.C.C.",
"S.G.G.G.D.S.G.G.C.M.n.,X,X[.G.6.7.v.D.Z.Z.m.o.z 0 > ; 4 6 f n D | 8.>.Z g D $.D A ;.| -.`.|.W.`.h.h.N.[.j.l.j.$.D Y *.Y *.4.g.W.'.@X}.[.,XfXaXfXtXn.b.b.b.v.d.s.d.v.b.b.b.b.b.b.v.v.v.b.b.n.n.B.B.M.n.n.",
"G.G.G.G.G.C.C.C.n.b.H.iX>XG.Z.s.d.V.C.o.e 9 ; ; 4 3 f k A S Y S Z z 9 g D &.&.x &.>.f.'.|.l.j.j.h.m.N.j.4.4.$.Y &.*.*.5.g.4.E.'.@XOXZ.Z.pXpXdXdX+X@.7.s.s.s.s.d.b.b.b.b.d.d.d.d.d.s.s.s.s.d.d.d.d.d.d.s.",
"G.G.C.C.C.C.M.n.b.G.iXiX,XC.s.v.d.c $ - 1 0 y u i j T 4.1.5.1.P x 2 e :.:.-.| x >.f.W.(.`.0.>.h.N.W.g.4.*.4.4.*.;.4.g.W.j.g.'.|.|.}.Z.}.pXiXdX>X7.{ X.o.@.@.7.s.s.d.d.s.7.7.s.s.s.s.7.7.8.8.7.7.@.@.+.+.",
"G.C.C.C.C.B.b.b.+XaX,XV.:.&.z > 4 4 4 y f l l H I 5.E.y.,.t.*.A s g -.p.:.| k D Y >.4.$.Y ;.f.(.W.g.g.4.*.*.>.>.f.W.j.W.W.|.|.[.[.OX[.,XiX,XG.X.M N V C { } ....7.7.@.@.......o.@.....| ........X.X.X.} ",
"G.C.b.b.B.B.C.>XdXrXm.Z.| D 6 y f f j h m T / 5.t.E.y.R.~ A k n Z ;.:.:.-.Z &.*.>.&.Z S *.g.g.g.j.j.g.4.$.;.0.j.`.N.h.`.@X|.V.`.OXXXXXrXtXZ.C M M M M M M N N C C C N N N N N D } } C C D D D | ..X.} D ",
"G.G.C.C.D.>X,XfXXXm.`.l.0.&.K j l K H K ,.E.E.W.E.*.k D Z D Z Z | | -.8.-.&.>.>.| D Y &.*.4.t.g.W.f.0.*.;.h.[.`.`.l.V.oXXXN.N.OX:XZ.,XtXG.N z z M M M M M M M M M M z z z z z N C C M N N N N C } D C N ",
"H.%XH.>X>XiXfX,Xm.N.l.0.j.4.P j T H / R.W.W.E.g.$.5 5 g x Z Z A N | :.8.8.:.8.&.C D Y *.,.*.4.g.g.4.4.;.h.Z.N.`.l.N.Z.}.N.N.N.OX}.XXiX>Xo.V N z c M M N C C V N C N M z z z z N C V M M M M M M C C N M ",
"H.tXrX+XfXfXtXN.[.l.0.j.0.Y m / ~ ~ W.W.t.&.g 9 0 0 w g N Z S D ..:.8.8.p.8.:.o.| Y Y ,.1.4.g.j.4.t.t.4.f.f.f.j.f.h.l.l.l.V.[.XXXX>X+X@.X.X.} V V V { X.@.o.} } } { } V V N B B V V V B t c M M V V } { ",
"tXrXiXaXiXOXN.j.4.0.N.OX[.f.j.4.*.f.D Z g 2 < q c } } } C ..:.@.7.8.p.p.d.h.8.>.8.f.t.,.1.t.;.*.>.t.f.f.f.f.g.f.h.l.l.h.l.}.XX>X+X>XC.9.@.o.X.} X.X.o.s.s.6.o.o.o.o.o.o.X.X.} { { { { ] B { ] ] {  .X. .",
"rXrX0XoX}.[.[.`.[.XX,XXXoXN.7.Z x w e V } +.c.S.F.n.M.d.b.Z.b.s.p.s.p.p.d.p.:.7.p.f.4.1.~ *.Z $.;.>.t.g.j.l.h.h.l.N.h.d.M.XX>X,X+XrX>Xb.+.o.@.6.s.s.s.s.v.b.s.9.s.s.7.+.o.@.@.@.o.{ { X. . .{  .X.+.+.X.",
"[.oXoX}.OXiXOX+X+X[.XXoXm.D z q B n.tXtXyXwXeXuXuXyXuXyXH.H.D.M.d.s.p.p.p.p.8.8.8.:.o.;.g.3.Y Y *.f.l.l.N.h.h.N.N.p.d.M.XXrXuX+Xb.H.D.d.9.s.7.d.M.M.7.+.d.b.b.b.C.C.s.+.+.9.b.C.v.+.+.d.v.9.+.@.@.s.s.@.",
"oXOX3XpX+X,XiX,X[.XXZ.9.s.b.F.F.S.G.+XuXkXkXgXuXyXyXdXhXtXtX>XD.M.s.d.p.p.>.:.o.D D | -.&.g.2.Y 4.h.`.N.8.8.h.m.7.8.V.,X>XG.C.7.o.d.d.s.s.s.@.7.n.M.@.@.d.b.C.C.G.G.C.n.c.n.C.M.d.9.v.H.+Xb.#.s.@.7.d.d.",
"3XiX3XiXiXrX,XXX+X,XdXjXzXnXzXlXtXeXgXkXkXkXuXyXjXyXtXuXdXkXtX>XG.V.d.s.8...} } } :.7.o.8.>.g.y.3.g.f.:.7.d.d.7.7.M.aXrXB.c.9.@.s.d.9.s.s.#.#.b.S.b.d.v.v.M.S.G.G.S.G.H.C.G.C.s.s.7.@.v.b.#.s.B.C.C.b.#.",
"aX,XtXaXrX,X+X,XuXlXfXeXhXzXAXZXkXyXkXkXgXyXeXyXuXeXuXuXdXuXeXH.yXeXG.B.s.o.o.7.7.7.o.} X.@.o.g.R.<.4.7.M.M.6.s.n.yX%Xn.s.@.@.d.C.n.@.v.S.S.H.H.G.C.F.F.S.n.b.G.H.S.S.H.G.S.b.s.s.@.@.9.b.B.b.b.C.D.b.o.",
"tXaXiXtX,X,XtXdXfXzXzX>XuXhXrXG.H.uXlXlXuXeXeX>XuXhXyXeXeXuXH.qXjX%X>XG.C.C.C.B.n.v.s.@.@.+.9.s.t.Y.P.R.XXs.v.v.H.n.w.+.+.+.+.7.b.C.n.G.eXH.tXeXeXjXlXyXqXc.d.H.eXc.C.G.A.+.+.s.v.v.G.H.S.D.C.d.C.eX>Xv.",
"tXtX,X+XkXkXhXlXuXkXjXdXjXgXyXeX>XtXtXG.tXtXuXuXyXS.c.c.S.F.F.jXjXwXyXyX%XyXyXS.S.F.C.b.n.b.d.7.s.t.Y.Q._.3XtX>XF.S.H.qXF.eX#.X.X.+.#.c.c.c.H.n.s.%XuX%Xb.d.s.{ ] { d.b.#.X.+.@.n.+XuXF.b.C.B.Z.G.C.M.v.",
"iXXXrXnXMXzXBXkXlXyXyXCXBXgXH.G.H.G.G.C.C.%XqXgXwXF.F.qXyXqXqXjXjXqXjXgXn.S.S.G.eXqXS.v.C.H.G.b.7.d.g.Q.Y._.#XpXsXpXfXaXiXuXH.C.#.r r q t { s.c.n.n.s.s.b.d.d.+.o.Z.+X>XC.@.M.H.H.G.C.b.b.G.D.M.X.s.C.s.",
"[.kXlXVXuX>XD.H.CXZXZXkXuXhXuXC.tXeX%X%XeXjXjXjXwXyXqXjXA.F.%XuXkXjXjXqXA.b.+.c.%XF.yXqXn.A.qXS.#.[ +.g.Q._._.(.R.Q. X{.@X@XOX[.D.+.X.[ { X.9.s.d.b.s.d.H.C.B } @.7.d.M.b.M.C.M.s.d.d.@.X.d.s.d.s.9.{ #.",
"ZXCXAXBXhXkXeXkXCXjXS.ZXCXlXF.S.uXlXqXyXH.%X%XjXBXjXwXyXqXF.%XqX%Xc.c.wXkX>XB.O.x.w.w.x.+.#.[ q r 8 q 0 3._.$X X6.e g | -.$.} B B ] X.d.9.C.@.o.} } ..d.} } @.o.@.s. .{ { ] o.b.V X.o.6.} { { 7.b.s.{ 7.",
"CXZXlX+XC.lXtXeXkXjXqXuXyXH.H.zXlXjXjXwXqXF.w.qXqXc.x.A.n.w.x.c.#.X.@.{ B M C 8 e q t { { c 0 x &.N e c N U.Q._._.).E.m.v.N.[.7.} 8.N.[.8.M. .X.V } } z | } X.X.7. .:.d.X.B ] o.+.o.o.7.+.9.@.} X.M.C.o.",
"mXjXwXyXeXjXS.qXBXyXeXwXS.H.H.jXyXA.uXqXc.c.c.A.c.[ V X.w.s.X.B { M w 1 8 w 2 g 2 q e q N 3.L.Q.I.P.U.5.T E P.I.I._._.$X$X$X$X#X XE.).q.$.h.} @.7.:.8.V D h.8.h.b. .o.+.V  .+.6.7.X.X.V.s.B.7.o.@.X.s.s.",
"gXjXwXqXF.A.S.wXwXqXc.#.#.A.S.S.c.+.n.c.+.@.7.o.V N z w ! ! M 0 N g 6 5 5 g y n 5 g g x 5.%.A L.E E J.R b h h h l I L.L.I.Q.Q.I.Q.q.).j.o.o.o.7.:.:.-.o.7.o.} o.@.s.6.d.6.9.M.v.v.M.M.M.b.Z.B.s.s.b.v.B.",
"] c.@.V { @.s.X.7.X.+.-.| -.D :.p.N D S n k Y g.Y D ;.D Z w S *.Z N g x Z g g k S N 6 ;.D x A A j x Z V D -.D N :.N g D D C | $.>.h.:.l.:.o.v.o.o.9.+.M.v.o.b.6. .s.v.d.G.s.M.o.M.v.9.Z.Z.B.M.D.+XS.Z.D.",
"e x | ;.:.:.p.7.6.| :.v.h.Z.h.V.>Xh.M.N.l.p.m.m.8.V.`.p.6.8.8.d.C.d.s.6.} o.7.| :.} :.-.N.l.d.7.8.s.v.M.N.v.@.h.M.M.d.M.M.d.C.v.b.Z.v.m.h.+Xv.v.Z.G.M.s.C.+XM.V.Z.G.B.M.Z.C.v.G.Z.v.v.b.C.b.d.s.G.C.v.G.",
"0 $.v.N.iXzXlXH.pXcXiXiXiXaXtXtXfX+XD.iXfXXX+XZ.iXAXnXiX+X+XD.C.b.b.G.dXiX+X+XG.Z.Z.G.M.d.Z.rXiXM.M.+XXX>X>XC.Z.V.C.C.D.+Xb.C.C.>XrXH.,XD.aXG.v.Z.M.G.G.rXeXS.B.M.D.G.,XG.B.Z.tXtXS.b.C.B.9.B.C.M.Z.S.b.",
"`.6.b.lXtXfXaXsX2XnXAXfXlXfXpXiXfXuXH.lXZXpXMXAXAXMXnXtXeXuXgXtXlXyX>X>XXX,XaXgXlXrXD.H.dX+X+XG.+XyXeX>XrX,XD.+X+XG.+XtXtX>X+XZXeXG.H.C.Z.G.rXeXeX,X3XV.>XC.Z.C.>Xb.d.V.XX>XZ.V.h.d.+X+XD.b.+X>XM.Z.S.H.",
"p.l.4X4X5X|.|.<XbXcXiXZXfXiXiXrX+XfXMXMXMXnXMXcXvX2XdXuXZXAXAXBXzXSXSXSXSXSXSXSXSXSXSXSXAXCXzXdXMXfXlXMXZXMXAXZXnXiX,XfX,XtXeXiXrXdXzXyXtXeXiXiXkX,XiXdX>XM.D.+XG.M.H.tX>XXXZ.G.D.C.d.+.B.,X>XaXD.+X>XG.",
"pXE.~..X].].sXvXlXfXsXfXnXdXlXzXMXZXZXZXlXdXZXlXiX,XXXzXzXaXzXZXAXZXAXAXAXlXtXiXMXtX>X,XZ.+X>XOX,XV.Z.3XcXcXcX+XZ.C.G.XXrXrXfXtXtX>X>XtXlXkXaXtXZXrXC.>XrXkXtX>XtXG.D.uXuXZ.M.V.n.D.>X,XZ.fXdXuXeXD.C.Z.",
"<XR.'.0.D `.4Xl.N.}.pX4XpX,XiXdXdXaXdXzXzXlXzXkXtXuX+XrXC.s.G.tXkXlXnXnXCXzXH.C.>XD.B.D.B.Z.+X+XG.D.G.aXsX4X:XC.b.C.>XG.rXH.+X+X,XrX>X>X>X+XrXtX>X>XB.C.D.>X,XiXMXdX>XG.Z.s.s.C.Z.B.Z.+XC.+XG.eXG.Z.d.D."
};
